Numix/16/status/indicator-keyboard-Ar-7.svg

<?xml version="1.0" encoding="UTF-8" standalone="no"?>
<svg
   xmlns:dc="http://purl.org/dc/elements/1.1/"
   xmlns:cc="http://creativecommons.org/ns#"
   xmlns:rdf="http://www.w3.org/1999/02/22-rdf-syntax-ns#"
   xmlns:svg="http://www.w3.org/2000/svg"
   xmlns="http://www.w3.org/2000/svg"
   xmlns:sodipodi="http://sodipodi.sourceforge.net/DTD/sodipodi-0.dtd"
   xmlns:inkscape="http://www.inkscape.org/namespaces/inkscape"
   viewBox="0 0 16 16"
   id="svg2"
   version="1.1"
   inkscape:version="0.91 r13725"
   sodipodi:docname="indicator-keyboard-Ar-7.svg">
  <metadata
     id="metadata14">
    <rdf:RDF>
      <cc:Work
         rdf:about="">
        <dc:format>image/svg+xml</dc:format>
        <dc:type
           rdf:resource="http://purl.org/dc/dcmitype/StillImage" />
      </cc:Work>
    </rdf:RDF>
  </metadata>
  <defs
     id="defs12" />
  <sodipodi:namedview
     pagecolor="#ffffff"
     bordercolor="#666666"
     borderopacity="1"
     objecttolerance="10"
     gridtolerance="10"
     guidetolerance="10"
     inkscape:pageopacity="0"
     inkscape:pageshadow="2"
     inkscape:window-width="459"
     inkscape:window-height="369"
     id="namedview10"
     showgrid="false"
     inkscape:zoom="14.75"
     inkscape:cx="8"
     inkscape:cy="8"
     inkscape:window-x="65"
     inkscape:window-y="24"
     inkscape:window-maximized="0"
     inkscape:current-layer="svg2" />
  <path
     style="fill:#ececec;fill-opacity:1"
     d="M 1.5996094 0 C 0.71320937 2.9605947e-16 0 0.71320937 0 1.5996094 L 0 14.400391 C 2.9605947e-16 15.286791 0.71320937 16 1.5996094 16 L 14.400391 16 C 15.286791 16 16 15.286791 16 14.400391 L 16 1.5996094 C 16 0.71320937 15.286791 0 14.400391 0 L 1.5996094 0 z M 4.5703125 4.859375 L 5.109375 4.859375 C 5.331375 5.321375 5.5422344 5.7821406 5.7402344 6.2441406 C 5.9382344 6.7061406 6.1359844 7.1893594 6.3339844 7.6933594 C 6.5379844 8.1913594 6.7450781 8.7231094 6.9550781 9.2871094 C 7.1650781 9.8451096 7.3926719 10.447703 7.6386719 11.095703 L 6.9648438 11.095703 C 6.8508438 10.789703 6.742625 10.496844 6.640625 10.214844 C 6.538625 9.9328435 6.43975 9.6567188 6.34375 9.3867188 L 3.3105469 9.3867188 C 3.2085469 9.6567187 3.1059062 9.9328436 3.0039062 10.214844 C 2.9019062 10.496844 2.7974531 10.789703 2.6894531 11.095703 L 2.0507812 11.095703 C 2.2907812 10.447703 2.5146094 9.8451096 2.7246094 9.2871094 C 2.9346094 8.7231094 3.1398906 8.1913594 3.3378906 7.6933594 C 3.5418906 7.1893594 3.7414531 6.7061406 3.9394531 6.2441406 C 4.1374531 5.7821406 4.3483125 5.321375 4.5703125 4.859375 z M 4.8222656 5.5605469 C 4.5942656 6.0765469 4.37225 6.6027187 4.15625 7.1367188 C 3.94625 7.6707187 3.728 8.2452813 3.5 8.8632812 L 6.1542969 8.8632812 C 5.9262969 8.2452813 5.7042812 7.6707187 5.4882812 7.1367188 C 5.2722813 6.6027188 5.0502656 6.0765469 4.8222656 5.5605469 z M 10.083984 6.3535156 C 10.275984 6.3535156 10.455047 6.3684375 10.623047 6.3984375 C 10.797047 6.4284375 10.918375 6.4582812 10.984375 6.4882812 L 10.867188 6.9921875 C 10.819188 6.9681875 10.720312 6.9439219 10.570312 6.9199219 C 10.426312 6.8899219 10.234141 6.875 9.9941406 6.875 C 9.7421406 6.875 9.5388125 6.8936875 9.3828125 6.9296875 C 9.2328125 6.9656875 9.1319844 6.9955312 9.0839844 7.0195312 L 9.0839844 11.095703 L 8.5 11.095703 L 8.5 6.6582031 C 8.65 6.5922031 8.8570937 6.5269375 9.1210938 6.4609375 C 9.3850937 6.3889375 9.7059841 6.3535156 10.083984 6.3535156 z M 11.486328 8.8417969 L 13.949219 8.8417969 L 13.949219 9.1816406 C 13.816619 9.3415406 13.671619 9.5551188 13.511719 9.8242188 C 13.355719 10.089419 13.206806 10.391163 13.066406 10.726562 C 12.926006 11.058062 12.802566 11.410756 12.697266 11.785156 C 12.595866 12.159556 12.533166 12.529884 12.509766 12.896484 L 12.107422 12.896484 C 12.130822 12.572784 12.189603 12.229888 12.283203 11.867188 C 12.380703 11.504488 12.496313 11.1518 12.632812 10.8125 C 12.773212 10.4732 12.924084 10.161653 13.083984 9.8769531 C 13.247784 9.5922532 13.406494 9.3649594 13.558594 9.1933594 L 11.486328 9.1933594 L 11.486328 8.8417969 z "
     id="path4" />
</svg>

<svg xmlns="http://www.w3.org/2000/svg" viewBox="0 0 16 16">
 <path d="m 1.6 0 c -0.886 0 -1.6 0.713 -1.6 1.6 l 0 12.801 c 0 0.886 0.713 1.6 1.6 1.6 l 12.801 0 c 0.886 0 1.6 -0.713 1.6 -1.6 l 0 -12.801 c 0 -0.886 -0.713 -1.6 -1.6 -1.6 l -12.801 0 z m 2.971 4.859 l 0.539 0 c 0.222 0.462 0.433 0.923 0.631 1.385 c 0.198 0.462 0.396 0.945 0.594 1.449 c 0.204 0.498 0.411 1.03 0.621 1.594 c 0.21 0.558 0.438 1.161 0.684 1.809 l -0.674 0 c -0.114 -0.306 -0.222 -0.599 -0.324 -0.881 c -0.102 -0.282 -0.201 -0.558 -0.297 -0.828 l -3.033 0 c -0.102 0.27 -0.205 0.546 -0.307 0.828 c -0.102 0.282 -0.206 0.575 -0.314 0.881 l -0.639 0 c 0.24 -0.648 0.464 -1.251 0.674 -1.809 c 0.21 -0.564 0.415 -1.096 0.613 -1.594 c 0.204 -0.504 0.404 -0.987 0.602 -1.449 c 0.198 -0.462 0.409 -0.923 0.631 -1.385 z m 0.252 0.701 c -0.228 0.516 -0.45 1.042 -0.666 1.576 c -0.21 0.534 -0.428 1.109 -0.656 1.727 l 2.654 0 c -0.228 -0.618 -0.45 -1.193 -0.666 -1.727 c -0.216 -0.534 -0.438 -1.06 -0.666 -1.576 z m 5.262 0.793 c 0.192 0 0.371 0.015 0.539 0.045 c 0.174 0.03 0.295 0.06 0.361 0.09 l -0.117 0.504 c -0.048 -0.024 -0.147 -0.048 -0.297 -0.072 c -0.144 -0.03 -0.336 -0.045 -0.576 -0.045 c -0.252 0 -0.455 0.019 -0.611 0.055 c -0.15 0.036 -0.251 0.066 -0.299 0.09 l 0 4.076 l -0.584 0 l 0 -4.437 c 0.15 -0.066 0.357 -0.131 0.621 -0.197 c 0.264 -0.072 0.585 -0.107 0.963 -0.107 z m 1.402 2.488 l 2.463 0 l 0 0.34 c -0.133 0.16 -0.278 0.373 -0.438 0.643 c -0.156 0.265 -0.305 0.567 -0.445 0.902 c -0.14 0.332 -0.264 0.684 -0.369 1.059 c -0.101 0.374 -0.164 0.745 -0.188 1.111 l -0.402 0 c 0.023 -0.324 0.082 -0.667 0.176 -1.029 c 0.098 -0.363 0.213 -0.715 0.35 -1.055 c 0.14 -0.339 0.291 -0.651 0.451 -0.936 c 0.164 -0.285 0.323 -0.512 0.475 -0.684 l -2.072 0 l 0 -0.352 z" style="fill:#ececec;fill-opacity:1"/>
</svg>
